packages/katcn/src/icons/svg/share-solid.svg

<svg width="24" height="24" viewBox="0 0 24 24" fill="none" xmlns="http://www.w3.org/2000/svg">
<path d="M22.1 9.79999L16.5 4.69999C15.7 3.99999 14.6 3.79999 13.6 4.19999C12.6 4.69999 11.9 5.69999 11.9 6.79999V7.29999H10.1C5.1 7.29999 1 11.5 1 16.8V19C1 19.4 1.3 19.8 1.7 20C1.8 20 1.9 20 2 20C2.3 20 2.7 19.8 2.8 19.5C4.3 17.1 6.8 15.7 9.6 15.7H11.9V17.1C11.9 18.3 12.5 19.3 13.6 19.7C14.6 20.1 15.7 19.9 16.5 19.2L22.1 14.1C22.7 13.5 23 12.8 23 12C23 11.2 22.7 10.4 22.1 9.79999Z" fill="black"/>
</svg>

<svg xmlns="http://www.w3.org/2000/svg" fill="none" viewBox="0 0 24 24"><path fill="#000" d="m22.1 9.8-5.6-5.1c-.8-.7-1.9-.9-2.9-.5-1 .5-1.7 1.5-1.7 2.6v.5h-1.8c-5 0-9.1 4.2-9.1 9.5V19c0 .4.3.8.7 1H2c.3 0 .7-.2.8-.5 1.5-2.4 4-3.8 6.8-3.8h2.3v1.4c0 1.2.6 2.2 1.7 2.6 1 .4 2.1.2 2.9-.5l5.6-5.1q.9-.9.9-2.1c0-.8-.3-1.6-.9-2.2"/></svg>
